assets/azurefolderblank/original.svg

<svg height="18" viewBox="0 0 18 18" width="18" xmlns="http://www.w3.org/2000/svg" xmlns:xlink="http://www.w3.org/1999/xlink"><linearGradient id="a" gradientUnits="userSpaceOnUse" x1="9.252" x2="8.842" y1=".485" y2="16.966"><stop offset="0" stop-color="#ffd400"/><stop offset=".415" stop-color="#ffd000"/><stop offset=".845" stop-color="#ffc301"/><stop offset="1" stop-color="#ffbd02"/></linearGradient><path d="m17.579 3.283h-7.852a.4.4 0 0 1 -.233-.07l-2.243-1.492a.4.4 0 0 0 -.233-.071h-6.597a.42.42 0 0 0 -.421.42v13.86a.42.42 0 0 0 .421.42h17.158a.42.42 0 0 0 .421-.42v-12.23a.42.42 0 0 0 -.421-.417" fill="#dfa500"/><rect fill="#fff" height=".818" rx=".172" width="4.091" x="1.636" y="2.455"/><path d="m17.579 3.263h-8.623a.42.42 0 0 0 -.3.123l-1.384 1.387a.42.42 0 0 1 -.3.123h-6.551a.42.42 0 0 0 -.421.42v10.594a.42.42 0 0 0 .421.419h17.158a.42.42 0 0 0 .421-.419v-12.227a.42.42 0 0 0 -.421-.42" fill="url(#a)"/></svg>

<svg xmlns="http://www.w3.org/2000/svg" width="18" height="18" viewBox="0 0 18 18"><defs><linearGradient id="ba550277-e5d9-459d-bfde-60aa3d6d8bb4" x1="9.252" x2="8.842" y1=".485" y2="16.966" gradientUnits="userSpaceOnUse"><stop offset="0" stop-color="#ffd400"/><stop offset=".415" stop-color="#ffd000"/><stop offset=".845" stop-color="#ffc301"/><stop offset="1" stop-color="#ffbd02"/></linearGradient></defs><title>MsPortalFx.base.images-24</title><g id="a2d6bd0e-ea40-44ec-b813-9a41f466150e"><path fill="#dfa500" d="M17.579 3.283H9.727a.4.4 0 0 1-.233-.07L7.251 1.721a.4.4 0 0 0-.233-.071H.421A.42.42 0 0 0 0 2.07v13.86a.42.42 0 0 0 .421.42h17.158a.42.42 0 0 0 .421-.42V3.7a.42.42 0 0 0-.421-.417"/><rect width="4.091" height=".818" x="1.636" y="2.455" fill="#fff" rx=".172"/><path fill="url(#ba550277-e5d9-459d-bfde-60aa3d6d8bb4)" d="M17.579 3.263H8.956a.42.42 0 0 0-.3.123L7.272 4.773a.42.42 0 0 1-.3.123H.421a.42.42 0 0 0-.421.42V15.91a.42.42 0 0 0 .421.419h17.158A.42.42 0 0 0 18 15.91V3.683a.42.42 0 0 0-.421-.42"/></g></svg>
